X:012
T:Glória a Deus
M:3/4
L:1/8
K:D
V:S
"D" D4 HD2 | "A" E4 HE2 | "D" F4 HF2 | "G" B2 c2 "Em" d2 |
w:San- to! San- to! San- to! Deus dos e-
"A7" d3/2c/2 c2 z "D" d | d4 "A7" AG | "D" F4 "F#m" A2 | "Bm" d2 c2 "E7" BB |
w:xér- ci- tos! A ter- ra e~os céus pro- cla- mam tu- a
"A" A2 A2 z2 | "D" A2 B2 A2 | "A7" GB A2 G2 |
w:gló- ria. Gló- ria~a ti, gló- ria~a ti, ó
"Bm" F4 "D" A2 | "G" Be "D/A" Hd2 "A7" Hc2 | "D" Hd12/2 |]
w:Deus, e- ter- na- men- te.~A- mém.